X: 31768
T: Patrick Maloney's Favourite
R: jig
M: 6/8
K: Gmajor
G3 BGG|dGG BGG|ABA ABd|ege dBA|
G3 BGG|dGG BGG|AzA B2A|GEE E2D:|
e2z e2z|faa fed|efe efe|dBA B3|
e2e e2z|faa fed|BdB B2A|GEE E3:|

